icons/logo/logo_asia-alliance-sign-box_m_color.svg

<svg xmlns="http://www.w3.org/2000/svg" width="24" height="24" viewBox="0 0 24 24" fill="none"><rect width="24" height="24" fill="none"/>
<path d="M21.9993 12.0087C21.9993 17.472 17.611 21.9109 12.1635 21.9987C6.54997 22.0887 1.92545 17.4807 2.00072 11.872C2.05402 7.90463 4.42094 4.49667 7.81475 2.93212H7.81584C7.9043 2.92993 7.98452 2.93761 8.05484 2.95243C8.05704 2.95243 8.12407 2.93102 8.12572 2.93212C8.12572 2.93212 8.04221 3.05619 8.07078 3.04191C8.18066 2.98702 8.26143 3.02709 8.29549 3.05454C8.35318 3.09956 8.5257 3.1012 8.51032 3.09681C8.49054 3.09132 8.3878 3.18245 8.29055 3.2066C8.21583 3.22527 8.18066 3.37129 8.07078 3.53598C8.05155 3.56508 7.9543 3.6562 7.92298 3.67157C4.83686 5.18012 2.57652 8.38223 2.57652 12.0449C2.57652 17.1689 6.8983 21.4871 12.0266 21.4871C17.155 21.4871 21.4218 17.1689 21.4218 12.0449C21.4218 6.92089 17.2105 2.70375 12.0821 2.70375C12.0409 2.70375 11.8481 2.60165 11.8074 2.60219H11.6426C11.6113 2.60219 11.4778 2.4924 11.4778 2.4924C11.4443 2.4924 11.608 2.56706 11.5877 2.53906C11.5662 2.50942 11.3349 2.38261 11.3679 2.38261C11.5327 2.38261 11.5327 2.27282 11.4228 2.21792C11.3245 2.16906 11.725 2.40182 11.725 2.34693C11.725 2.29203 11.7201 2.21847 11.7772 2.20035C11.8349 2.18224 11.6426 2.10813 11.5877 2.10813C11.5756 2.10813 11.6953 2.11032 11.7525 2.05323C11.7541 2.05158 11.7558 2.04994 11.7574 2.04829C11.7959 2.00931 11.8514 1.9923 11.9052 2.00328C11.9387 2.01041 11.9722 2.017 12.0003 2.017C17.5231 2.017 21.9998 6.48995 21.9998 12.0081L21.9993 12.0087Z" fill="url(#paint0_linear_4925_51)"/>
<path d="M9.2003 10.8092H9.61731C9.61731 10.8092 9.71841 11.4147 10.1997 11.4141C10.681 11.4136 14.8017 11.5777 14.8017 11.5777H9.98488C9.98488 11.5777 9.31348 11.5228 9.20085 10.8092H9.2003Z" fill="url(#paint1_linear_4925_51)"/>
<path d="M4.08791 11.4679C4.08791 11.4679 3.70332 11.2484 3.70332 10.919C3.70332 10.5896 3.70332 10.3804 4.08791 10.2383C4.47251 10.0961 8.26355 8.94271 9.08769 8.94271C9.91183 8.94271 11.2854 8.83292 12.2194 9.0525C13.1534 9.27209 13.9226 9.71126 14.1973 9.82105C14.4721 9.93084 14.4171 10.1504 15.3511 10.1504C16.2852 10.1504 17.2741 10.3151 17.8236 10.4249C18.373 10.5347 18.9774 10.8092 19.2521 10.9739C19.5268 11.1386 20.1311 11.5777 20.1861 11.7973H19.6328C19.6328 11.7973 18.9224 11.1386 18.6477 11.0288C18.373 10.919 17.9884 10.5896 17.1642 10.4798C16.3401 10.37 15.5709 10.3151 14.9665 10.3151C14.3622 10.3151 12.9886 10.2602 12.9886 10.2602C12.9886 10.2602 12.1777 10.2783 12.0062 10.0494C11.8348 9.8205 12.0546 9.60146 12.2194 9.60146C12.3842 9.60146 12.604 9.87595 12.7688 9.93084C12.9337 9.98574 13.3183 10.1504 13.6479 10.0955C13.0985 9.71126 12.8787 9.65636 12.8787 9.65636C12.8787 9.65636 12.1112 9.27758 11.4782 9.24738C10.8453 9.21719 9.30746 9.24738 9.30746 9.24738C9.30746 9.24738 7.60424 9.43678 7.5493 9.54657C7.49435 9.65636 7.44326 9.78866 7.93609 9.85948C8.42893 9.93029 9.20087 9.94402 9.20087 9.94402C9.20087 9.94402 8.92286 10.0291 8.01631 10.0071C7.10976 9.98519 4.14286 9.87595 4.08791 11.4679Z" fill="url(#paint2_linear_4925_51)"/>
<path d="M7.98883 11.6326C7.65148 11.1935 7.11414 10.919 6.53285 10.919C5.84057 10.919 5.44608 11.043 5.13181 11.6326C5.3829 10.9245 5.78838 10.6994 6.50538 10.6994C7.27457 10.6994 7.69214 11.0699 7.98883 11.6326Z" fill="url(#paint3_linear_4925_51)"/>
<path d="M18.5378 11.6326C18.2005 11.1935 17.6631 10.919 17.0818 10.919C16.3895 10.919 15.9951 11.043 15.6808 11.6326C15.9319 10.9245 16.3374 10.6994 17.0544 10.6994C17.8235 10.6994 18.2411 11.0699 18.5378 11.6326Z" fill="#EDE3C7"/>
<path d="M7.27457 10.1504L13.9226 10.5896H8.47067C8.47067 10.5896 8.70308 11.1935 8.42837 11.4679C8.26354 10.8092 8.48331 10.6445 7.27457 10.1504Z" fill="url(#paint4_linear_4925_51)"/>
<path d="M5.3845 14.2819C5.45098 14.4444 5.53449 14.5053 5.67624 14.5053V14.5718C5.46526 14.5619 5.25868 14.5619 5.05649 14.5718V14.5053C5.1966 14.5053 5.22517 14.4471 5.15814 14.2819L4.98946 13.8674H4.24499L4.08236 14.2819C4.01588 14.4471 4.0439 14.5053 4.184 14.5053V14.5718C4.02137 14.5646 3.8527 14.5646 3.67853 14.5718V14.5053C3.82138 14.5053 3.90929 14.4444 3.97138 14.2819L4.60706 12.6542H4.72299L5.38395 14.2819H5.3845ZM4.27905 13.7758H4.95155L4.61036 12.9298L4.27905 13.7758ZM6.74433 13.5496H6.67785C6.68224 13.3646 6.57016 13.2597 6.36797 13.2597C6.1982 13.2597 6.09326 13.3333 6.09326 13.4579C6.09326 13.5639 6.17952 13.6544 6.35369 13.7296C6.35808 13.7313 6.38061 13.7412 6.42456 13.7582C6.46852 13.7763 6.49654 13.7895 6.51247 13.7966C6.52676 13.8038 6.55368 13.818 6.59159 13.8389C6.63005 13.8603 6.65807 13.8812 6.67675 13.8998C6.71081 13.9393 6.7674 13.9959 6.78553 14.0684C6.79542 14.1035 6.79982 14.1419 6.79982 14.1831C6.79982 14.3088 6.75147 14.4082 6.65532 14.4801C6.55917 14.5536 6.42621 14.5904 6.25754 14.5904C6.11578 14.5904 6.00535 14.5663 5.92788 14.5185C5.9125 14.4208 5.90535 14.3077 5.90371 14.1792H5.97184C5.96744 14.2599 5.99436 14.3319 6.0526 14.3928C6.11084 14.4537 6.19545 14.4845 6.31028 14.4845C6.49873 14.4845 6.62016 14.3857 6.62016 14.2341C6.62016 14.1721 6.59873 14.1238 6.55807 14.0898C6.51687 14.0574 6.4361 14.0135 6.31578 13.9597C6.18721 13.9004 6.08941 13.8394 6.02293 13.7758C5.95645 13.7121 5.92239 13.6286 5.92239 13.5254C5.92239 13.4096 5.96634 13.319 6.0526 13.2526C6.13886 13.1862 6.25644 13.1538 6.40368 13.1538C6.50423 13.1538 6.61301 13.1708 6.73334 13.2059C6.74488 13.3207 6.74872 13.4348 6.74488 13.5512L6.74433 13.5496ZM7.02453 14.4971C7.18716 14.4971 7.2509 14.429 7.2509 14.2385V13.5359C7.2509 13.4398 7.23387 13.3816 7.18881 13.3591C7.16464 13.3476 7.14651 13.341 7.13057 13.3393C7.11519 13.3377 7.08937 13.3349 7.0542 13.3322V13.2658C7.18607 13.2674 7.31903 13.2405 7.45473 13.1823V14.2385C7.45473 14.4268 7.51682 14.4971 7.68275 14.4971V14.5723C7.46353 14.5652 7.24376 14.5652 7.02453 14.5723V14.4971ZM7.33331 12.8837C7.28826 12.8837 7.25145 12.8711 7.22453 12.8453C7.19596 12.8211 7.18222 12.7871 7.18222 12.7448C7.18222 12.6559 7.24705 12.5933 7.33386 12.5933C7.41463 12.5933 7.48935 12.6498 7.48935 12.7388C7.48935 12.7827 7.47506 12.8178 7.44539 12.8436C7.41573 12.8705 7.37727 12.8831 7.33331 12.8831V12.8837ZM9.09807 14.4126C9.03598 14.5273 8.95082 14.5838 8.84478 14.5838C8.78984 14.5838 8.73984 14.5657 8.69918 14.5289C8.65853 14.4922 8.6327 14.4499 8.62281 14.4016V14.3961C8.47557 14.518 8.33986 14.5783 8.21679 14.5783C8.11899 14.5783 8.03163 14.546 7.95471 14.4823C7.87834 14.4186 7.83988 14.3351 7.83988 14.2303C7.83988 14.0607 7.95581 13.9476 8.18657 13.8894C8.27558 13.8669 8.36513 13.851 8.4893 13.84C8.55029 13.8345 8.5882 13.8301 8.60413 13.8285V13.6802C8.60413 13.5726 8.59699 13.5062 8.56897 13.4145C8.5393 13.3229 8.46568 13.2691 8.3525 13.2691C8.30415 13.2691 8.25909 13.2773 8.21679 13.2932C8.17448 13.3102 8.1547 13.3256 8.1558 13.3399C8.1558 13.3514 8.23657 13.3838 8.23107 13.4782C8.23107 13.5617 8.18877 13.6056 8.10361 13.6111C8.04152 13.6155 7.99592 13.5968 7.96625 13.5589C7.93658 13.521 7.9212 13.4782 7.9212 13.4316C7.9212 13.341 7.97339 13.2729 8.07833 13.2279C8.18162 13.1829 8.28766 13.1598 8.3937 13.1598C8.52117 13.1598 8.62556 13.1966 8.70798 13.2718C8.78984 13.347 8.83105 13.4513 8.83105 13.5831V14.2435C8.83105 14.4713 8.91181 14.5191 9.07719 14.3906L9.09862 14.4131L9.09807 14.4126ZM8.60413 14.3209V13.9037C8.36513 13.9575 8.24316 13.9855 8.24206 13.9871C8.11899 14.0294 8.05691 14.1046 8.05691 14.2133C8.05691 14.277 8.07943 14.3319 8.12613 14.3758C8.17283 14.4197 8.23107 14.4422 8.30305 14.4422C8.41183 14.4422 8.51238 14.401 8.60468 14.3203L8.60413 14.3209ZM11.0683 14.2824C11.1348 14.4449 11.2183 14.5059 11.3601 14.5059V14.5723C11.1491 14.5624 10.9425 14.5624 10.7403 14.5723V14.5059C10.8804 14.5059 10.909 14.4477 10.8419 14.2824L10.6733 13.868H9.9288L9.76617 14.2824C9.69969 14.4477 9.72771 14.5059 9.86781 14.5059V14.5723C9.70518 14.5652 9.53651 14.5652 9.36234 14.5723V14.5059C9.50519 14.5059 9.5931 14.4449 9.65518 14.2824L10.2909 12.6548H10.4068L11.0678 14.2824H11.0683ZM9.96286 13.7763H10.6354L10.2942 12.9304L9.96286 13.7763ZM11.5919 14.4976C11.7545 14.4976 11.8172 14.4296 11.8172 14.2391V12.7541C11.8172 12.6581 11.8001 12.5999 11.7551 12.5774C11.7309 12.5658 11.7128 12.5593 11.6969 12.5576C11.6815 12.556 11.6556 12.5532 11.6205 12.5505V12.484C11.7633 12.4884 11.9034 12.4599 12.038 12.4006V14.2391C12.038 14.4274 12.099 14.4976 12.2644 14.4976V14.5729C12.0408 14.563 11.8172 14.563 11.5919 14.5729V14.4976ZM12.5715 14.4976C12.7342 14.4976 12.7968 14.4296 12.7968 14.2391V12.7541C12.7968 12.6581 12.7798 12.5999 12.7347 12.5774C12.7105 12.5658 12.6924 12.5593 12.6765 12.5576C12.6611 12.556 12.6353 12.5532 12.6001 12.5505V12.484C12.743 12.4884 12.8831 12.4599 13.0177 12.4006V14.2391C13.0177 14.4274 13.0787 14.4976 13.244 14.4976V14.5729C13.0204 14.563 12.7968 14.563 12.5715 14.5729V14.4976ZM13.483 14.4976C13.6457 14.4976 13.7094 14.4296 13.7094 14.2391V13.5364C13.7094 13.4403 13.6924 13.3821 13.6473 13.3596C13.6231 13.3481 13.605 13.3415 13.5891 13.3399C13.5737 13.3382 13.5479 13.3355 13.5127 13.3327V13.2663C13.6446 13.268 13.7775 13.2411 13.9132 13.1829V14.2391C13.9132 14.4274 13.9753 14.4976 14.1412 14.4976V14.5729C13.922 14.5657 13.7023 14.5657 13.483 14.5729V14.4976ZM13.7918 12.8842C13.7468 12.8842 13.7099 12.8716 13.683 12.8458C13.6545 12.8217 13.6407 12.7876 13.6407 12.7454C13.6407 12.6564 13.7056 12.5938 13.7924 12.5938C13.8731 12.5938 13.9478 12.6504 13.9478 12.7393C13.9478 12.7832 13.9336 12.8184 13.9039 12.8442C13.8742 12.8711 13.8358 12.8837 13.7918 12.8837V12.8842ZM15.5566 14.4131C15.4945 14.5278 15.4093 14.5844 15.3033 14.5844C15.2483 14.5844 15.1983 14.5663 15.1577 14.5295C15.117 14.4927 15.0912 14.4504 15.0813 14.4021V14.3966C14.9341 14.5185 14.7984 14.5789 14.6753 14.5789C14.5775 14.5789 14.4901 14.5465 14.4132 14.4828C14.3368 14.4191 14.2984 14.3357 14.2984 14.2308C14.2984 14.0612 14.4143 13.9481 14.6451 13.8899C14.7341 13.8674 14.8236 13.8515 14.9478 13.8405C15.0088 13.835 15.0467 13.8307 15.0626 13.829V13.6808C15.0626 13.5732 15.0555 13.5068 15.0275 13.4151C14.9978 13.3234 14.9242 13.2696 14.811 13.2696C14.7626 13.2696 14.7176 13.2778 14.6753 13.2938C14.633 13.3108 14.6132 13.3262 14.6143 13.3404C14.6143 13.352 14.6951 13.3843 14.6896 13.4788C14.6896 13.5622 14.6473 13.6061 14.5621 13.6116C14.5 13.616 14.4544 13.5973 14.4247 13.5595C14.3951 13.5216 14.3797 13.4788 14.3797 13.4321C14.3797 13.3415 14.4319 13.2735 14.5368 13.2284C14.6401 13.1834 14.7462 13.1604 14.8522 13.1604C14.9797 13.1604 15.0841 13.1971 15.1665 13.2724C15.2483 13.3476 15.2895 13.4519 15.2895 13.5836V14.244C15.2895 14.4718 15.3703 14.5196 15.5357 14.3911L15.5571 14.4137L15.5566 14.4131ZM15.0626 14.3214V13.9042C14.8236 13.958 14.7017 13.986 14.7006 13.9877C14.5775 14.0299 14.5154 14.1051 14.5154 14.2138C14.5154 14.2775 14.5379 14.3324 14.5846 14.3763C14.6313 14.4202 14.6896 14.4427 14.7615 14.4427C14.8703 14.4427 14.9709 14.4016 15.0632 14.3209L15.0626 14.3214ZM17.0087 14.2396C17.0087 14.4279 17.0708 14.4982 17.2367 14.4982V14.5734C17.0186 14.5663 16.7994 14.5663 16.5785 14.5734V14.4982C16.7411 14.4982 16.8049 14.4301 16.8049 14.2396V13.739C16.8049 13.7093 16.8032 13.6709 16.7994 13.6231C16.795 13.5748 16.7911 13.5397 16.784 13.5172C16.7768 13.4958 16.767 13.4689 16.7527 13.4392C16.7087 13.3558 16.6367 13.3333 16.5065 13.3245C16.3214 13.3245 16.1769 13.3997 16.0747 13.5507V14.2396C16.0747 14.4279 16.1384 14.4982 16.3038 14.4982V14.5734C16.0857 14.5663 15.8664 14.5663 15.6456 14.5734V14.4982C15.8082 14.4982 15.8719 14.4301 15.8719 14.2396V13.537C15.8719 13.4409 15.8538 13.3827 15.8082 13.3602C15.784 13.3487 15.7659 13.3421 15.75 13.3404C15.7346 13.3388 15.7088 13.336 15.6736 13.3333V13.2669C15.8055 13.2685 15.9384 13.2416 16.0741 13.1834V13.4409C16.234 13.2559 16.4197 13.162 16.6274 13.1637C16.7746 13.1565 16.8637 13.212 16.923 13.2713C16.9625 13.308 16.9812 13.386 16.9939 13.4338C17.001 13.4579 17.0054 13.4919 17.0082 13.5326C17.0098 13.5737 17.0109 13.6072 17.0109 13.6314C17.0109 13.6566 17.0109 13.6923 17.0092 13.7373C17.0076 13.7823 17.0076 13.8164 17.0076 13.8378V14.2396H17.0087ZM18.7268 14.3247C18.5938 14.5042 18.4026 14.5932 18.1548 14.5932C17.9367 14.5932 17.7559 14.5322 17.6114 14.4109C17.4658 14.289 17.3933 14.1211 17.3933 13.9075C17.3933 13.6824 17.4713 13.5002 17.6268 13.3602C17.7823 13.2202 17.9663 13.151 18.179 13.151C18.3586 13.151 18.5257 13.1961 18.6828 13.2883C18.6998 13.42 18.7053 13.571 18.6998 13.7423H18.6334C18.6334 13.5682 18.5894 13.4425 18.5031 13.3618C18.4169 13.2811 18.3037 13.2416 18.1647 13.2416C17.9905 13.2416 17.8603 13.2965 17.774 13.4069C17.6861 13.5188 17.6422 13.6616 17.6422 13.8356C17.6422 14.0195 17.6905 14.1677 17.785 14.2824C17.8801 14.3972 18.0213 14.4548 18.2125 14.4548C18.4037 14.4548 18.552 14.3911 18.674 14.2638L18.7262 14.3247H18.7268ZM20.2102 14.2495C20.1608 14.3527 20.0827 14.4334 19.9767 14.4943C19.8707 14.5553 19.7514 14.5849 19.6229 14.5849C19.4289 14.5849 19.2718 14.5201 19.1504 14.3884C19.0284 14.2566 18.968 14.0914 18.968 13.8905C18.968 13.6896 19.0317 13.5128 19.1592 13.3717C19.2866 13.2317 19.4481 13.1609 19.6432 13.1609C19.7904 13.1609 19.9119 13.2021 20.0069 13.2855C20.102 13.369 20.1553 13.4804 20.1657 13.6237L19.1949 13.8444C19.1993 14.0069 19.2443 14.1441 19.3333 14.2561C19.4223 14.3681 19.5454 14.4246 19.7042 14.4246C19.7932 14.4246 19.8811 14.4065 19.969 14.3708C20.0553 14.3357 20.1206 14.2819 20.163 14.2094L20.2113 14.2506L20.2102 14.2495ZM19.3212 13.4052C19.246 13.5112 19.2037 13.627 19.1938 13.7505L19.9355 13.5864C19.9201 13.4947 19.8844 13.414 19.8278 13.3476C19.7712 13.2811 19.6976 13.2471 19.6069 13.2471C19.491 13.2471 19.396 13.2993 19.3212 13.4058V13.4052Z" fill="url(#paint5_linear_4925_51)"/>
<path d="M5.10431 15.802C8.74261 15.7965 14.3517 15.7597 17.9301 15.7921C17.9301 15.7976 18.7965 15.7921 18.785 15.8075L17.9301 15.8174C14.3781 15.8443 8.70195 15.8239 5.10431 15.802Z" fill="#EDDCAE"/>
<defs>
<linearGradient id="paint0_linear_4925_51" x1="2.00017" y1="11.9999" x2="21.9993" y2="11.9999" gradientUnits="userSpaceOnUse">
<stop stop-color="#EDE3C7"/>
<stop offset="0.2" stop-color="#B07B39"/>
<stop offset="0.5" stop-color="#EDE3C7"/>
<stop offset="0.74" stop-color="#B07B39"/>
<stop offset="0.96" stop-color="#EDE3C7"/>
</linearGradient>
<linearGradient id="paint1_linear_4925_51" x1="1.99982" y1="12" x2="21.9998" y2="12" gradientUnits="userSpaceOnUse">
<stop stop-color="#EDE3C7"/>
<stop offset="0.98" stop-color="#B07B39"/>
</linearGradient>
<linearGradient id="paint2_linear_4925_51" x1="1.99982" y1="12" x2="21.9998" y2="12" gradientUnits="userSpaceOnUse">
<stop stop-color="#B07B39"/>
<stop offset="0.26" stop-color="#EDE3C7"/>
<stop offset="0.57" stop-color="#B07B39"/>
<stop offset="0.8" stop-color="#EDE3C7"/>
<stop offset="1" stop-color="#B07B39"/>
</linearGradient>
<linearGradient id="paint3_linear_4925_51" x1="1.99982" y1="12" x2="26.1806" y2="12" gradientUnits="userSpaceOnUse">
<stop stop-color="#EDE3C7"/>
<stop offset="1" stop-color="#B07B39"/>
</linearGradient>
<linearGradient id="paint4_linear_4925_51" x1="1.99982" y1="12" x2="21.9998" y2="12" gradientUnits="userSpaceOnUse">
<stop stop-color="#EDE3C7"/>
<stop offset="0.98" stop-color="#B07B39"/>
</linearGradient>
<linearGradient id="paint5_linear_4925_51" x1="2.00048" y1="11.985" x2="21.9985" y2="11.985" gradientUnits="userSpaceOnUse">
<stop stop-color="#B07B39"/>
<stop offset="0.26" stop-color="#EDE3C7"/>
<stop offset="0.57" stop-color="#B07B39"/>
<stop offset="0.8" stop-color="#EDE3C7"/>
<stop offset="1" stop-color="#B07B39"/>
</linearGradient>
</defs>
</svg>

<svg width="24" height="24" fill="none" xmlns="http://www.w3.org/2000/svg"><path d="M22 12.009c0 5.463-4.389 9.902-9.836 9.99C6.55 22.089 1.926 17.48 2 11.872a9.992 9.992 0 0 1 5.814-8.94h.001c.088-.002.169.006.239.02l.07-.02s-.083.124-.054.11c.11-.055.19-.015.225.013.057.045.23.046.215.042-.02-.006-.123.085-.22.11-.075.018-.11.164-.22.329a.737.737 0 0 1-.148.136c-3.086 1.508-5.346 4.71-5.346 8.373 0 5.124 4.321 9.442 9.45 9.442 5.128 0 9.395-4.318 9.395-9.442 0-5.124-4.211-9.341-9.34-9.341-.04 0-.234-.102-.274-.102h-.165c-.032 0-.165-.11-.165-.11-.034 0 .13.075.11.047-.022-.03-.253-.156-.22-.156.165 0 .165-.11.055-.165-.098-.049.302.184.302.129 0-.055-.005-.128.052-.147.058-.018-.134-.092-.19-.092-.011 0 .108.002.166-.055l.005-.005a.162.162 0 0 1 .147-.045.49.49 0 0 0 .096.014C17.523 2.017 22 6.49 22 12.008z" fill="url(#a)"/><path d="M9.2 10.81h.418s.1.605.582.604c.481 0 4.602.164 4.602.164H9.985s-.671-.055-.784-.769z" fill="url(#b)"/><path d="M4.088 11.468s-.385-.22-.385-.549c0-.33 0-.539.385-.68.385-.143 4.176-1.296 5-1.296.824 0 2.198-.11 3.132.11.934.22 1.703.658 1.977.768.275.11.22.33 1.154.33.934 0 1.923.164 2.473.274a5.17 5.17 0 0 1 1.428.549c.275.165.88.604.934.823h-.553s-.71-.658-.985-.768c-.275-.11-.66-.44-1.484-.55a17.308 17.308 0 0 0-2.197-.164c-.605 0-1.978-.055-1.978-.055s-.811.018-.983-.21c-.171-.23.049-.449.214-.449.164 0 .384.275.549.33.165.055.55.22.88.165-.55-.385-.77-.44-.77-.44s-.768-.378-1.4-.409c-.633-.03-2.171 0-2.171 0s-1.704.19-1.759.3c-.054.11-.106.242.387.313.493.07 1.265.084 1.265.084s-.278.085-1.185.063c-.906-.022-3.873-.131-3.928 1.461z" fill="url(#c)"/><path d="M7.989 11.633a1.84 1.84 0 0 0-1.456-.714c-.692 0-1.087.124-1.401.714.251-.708.657-.934 1.374-.934.769 0 1.186.371 1.483.934z" fill="url(#d)"/><path d="M18.538 11.633a1.84 1.84 0 0 0-1.456-.714c-.692 0-1.087.124-1.401.714.251-.708.656-.934 1.374-.934.769 0 1.186.371 1.483.934z" fill="#EDE3C7"/><path d="m7.275 10.15 6.648.44H8.47s.232.604-.042.878c-.165-.659.054-.823-1.154-1.318z" fill="url(#e)"/><path d="M5.385 14.282c.066.162.15.223.291.223v.067a6.47 6.47 0 0 0-.62 0v-.067c.14 0 .17-.058.102-.223l-.168-.415h-.745l-.162.415c-.067.165-.039.223.101.223v.067a5.915 5.915 0 0 0-.505 0v-.067c.143 0 .23-.06.293-.223l.635-1.628h.116l.661 1.628zm-1.106-.506h.673l-.341-.846-.332.846zm2.466-.226h-.067c.004-.185-.108-.29-.31-.29-.17 0-.275.073-.275.198 0 .106.087.197.26.272l.072.028c.044.018.072.032.088.039l.079.042a.388.388 0 0 1 .085.06c.034.04.09.097.109.17.01.034.014.073.014.114a.351.351 0 0 1-.144.297c-.097.074-.23.11-.398.11a.631.631 0 0 1-.33-.072 2.42 2.42 0 0 1-.024-.339h.068a.277.277 0 0 0 .08.214c.059.06.144.091.258.091.189 0 .31-.098.31-.25a.179.179 0 0 0-.062-.144 1.297 1.297 0 0 0-.242-.13 1.08 1.08 0 0 1-.293-.184.331.331 0 0 1-.1-.25c0-.116.044-.207.13-.273a.563.563 0 0 1 .35-.1c.101 0 .21.018.33.053.012.115.016.229.012.345v-.001zm.28.947c.162 0 .226-.068.226-.258v-.703c0-.096-.017-.154-.062-.177a.185.185 0 0 0-.058-.02 2.483 2.483 0 0 0-.077-.007v-.066a.978.978 0 0 0 .4-.084v1.057c0 .188.063.258.229.258v.075c-.22-.007-.44-.007-.658 0v-.075zm.308-1.613a.151.151 0 0 1-.108-.039.125.125 0 0 1-.043-.1c0-.09.065-.152.152-.152.08 0 .156.057.156.146a.132.132 0 0 1-.044.105.162.162 0 0 1-.112.04zm1.765 1.529c-.062.114-.147.17-.253.17a.234.234 0 0 1-.222-.182v-.005c-.147.122-.283.182-.406.182a.4.4 0 0 1-.262-.096.311.311 0 0 1-.115-.252c0-.17.116-.282.347-.34.089-.023.178-.039.302-.05l.115-.011v-.149a.806.806 0 0 0-.035-.265c-.03-.092-.103-.146-.216-.146a.382.382 0 0 0-.136.024c-.042.017-.062.033-.061.047 0 .011.08.044.075.138 0 .084-.042.128-.127.133-.062.005-.108-.014-.138-.052a.202.202 0 0 1-.045-.127c0-.091.053-.16.158-.204a.787.787 0 0 1 .315-.068c.127 0 .232.037.314.112.082.075.123.18.123.311v.66c0 .228.081.276.246.148l.022.022zm-.494-.092v-.417a13.77 13.77 0 0 0-.362.083c-.123.042-.185.118-.185.226 0 .064.023.119.07.163a.247.247 0 0 0 .176.066.45.45 0 0 0 .302-.122zm2.465-.038c.066.162.15.223.291.223v.066c-.21-.01-.417-.01-.62 0v-.066c.14 0 .17-.058.102-.223l-.168-.415h-.745l-.163.415c-.066.165-.038.223.102.223v.066a5.999 5.999 0 0 0-.505 0v-.066c.142 0 .23-.061.292-.223l.636-1.628h.116l.66 1.628h.002zm-1.106-.507h.673l-.342-.846-.33.846zm1.63.722c.162 0 .224-.068.224-.259v-1.485c0-.096-.017-.154-.062-.177a.188.188 0 0 0-.058-.02l-.076-.007v-.066a.955.955 0 0 0 .417-.083v1.838c0 .188.061.259.227.259v.075a7.617 7.617 0 0 0-.673 0v-.075zm.979 0c.162 0 .225-.068.225-.259v-1.485c0-.096-.017-.154-.062-.177a.189.189 0 0 0-.058-.02l-.077-.007v-.066a.956.956 0 0 0 .418-.083v1.838c0 .188.06.259.226.259v.075a7.617 7.617 0 0 0-.672 0v-.075zm.911 0c.163 0 .227-.068.227-.259v-.703c0-.096-.018-.154-.063-.176a.186.186 0 0 0-.058-.02c-.015-.002-.041-.005-.076-.007v-.067a.974.974 0 0 0 .4-.083v1.056c0 .188.063.259.228.259v.075c-.219-.007-.439-.007-.658 0v-.075zm.309-1.614a.151.151 0 0 1-.109-.038.124.124 0 0 1-.042-.1c0-.09.065-.152.152-.152.08 0 .155.056.155.145 0 .044-.014.08-.044.105a.162.162 0 0 1-.112.04zm1.765 1.53c-.062.114-.148.17-.254.17a.233.233 0 0 1-.222-.182v-.005c-.147.121-.282.182-.405.182a.4.4 0 0 1-.263-.096.311.311 0 0 1-.114-.252c0-.17.116-.283.346-.341.09-.023.179-.039.303-.05l.115-.011v-.148a.807.807 0 0 0-.035-.266c-.03-.092-.104-.145-.217-.145a.382.382 0 0 0-.136.024c-.042.017-.062.032-.06.046 0 .012.08.044.075.139 0 .083-.043.127-.128.133-.062.004-.107-.015-.137-.053a.203.203 0 0 1-.045-.127c0-.09.052-.159.157-.204a.787.787 0 0 1 .315-.068c.128 0 .232.037.315.112.082.076.123.18.123.312v.66c0 .228.08.276.246.147l.021.023zm-.494-.092v-.418c-.24.054-.361.082-.362.084-.123.042-.185.117-.185.226 0 .063.022.118.069.162a.247.247 0 0 0 .177.067.45.45 0 0 0 .301-.122zm1.946-.082c0 .188.062.258.228.258v.075a10.172 10.172 0 0 0-.658 0v-.075c.162 0 .226-.068.226-.258v-.501a1.496 1.496 0 0 0-.02-.222.663.663 0 0 0-.032-.078c-.044-.083-.116-.106-.246-.114a.492.492 0 0 0-.432.226v.689c0 .188.064.258.229.258v.075a10.172 10.172 0 0 0-.658 0v-.075c.162 0 .226-.068.226-.258v-.703c0-.096-.018-.154-.064-.177a.185.185 0 0 0-.058-.02 2.463 2.463 0 0 0-.076-.007v-.066a.978.978 0 0 0 .4-.083v.257c.16-.185.346-.279.554-.277a.368.368 0 0 1 .295.107c.04.037.058.115.071.163a.482.482 0 0 1 .014.099l.003.098c0 .026 0 .061-.002.106l-.001.1v.403zm1.718.085c-.133.18-.324.268-.572.268a.815.815 0 0 1-.543-.182.621.621 0 0 1-.218-.503c0-.226.078-.408.233-.548.155-.14.34-.209.552-.209.18 0 .347.045.504.137.017.132.023.283.017.454h-.066c0-.174-.044-.3-.13-.38a.475.475 0 0 0-.34-.12c-.173 0-.304.054-.39.165a.673.673 0 0 0-.132.429.68.68 0 0 0 .143.447c.095.114.236.172.428.172.19 0 .34-.064.461-.191l.052.06zm1.483-.075a.558.558 0 0 1-.233.244.7.7 0 0 1-.354.091.612.612 0 0 1-.473-.197.703.703 0 0 1-.182-.498c0-.2.064-.377.191-.518a.628.628 0 0 1 .484-.211c.148 0 .269.041.364.125a.475.475 0 0 1 .159.338l-.971.22c.004.163.05.3.139.412a.447.447 0 0 0 .37.169.7.7 0 0 0 .265-.054.385.385 0 0 0 .194-.162l.049.042-.002-.002zm-.889-.845a.682.682 0 0 0-.127.346l.742-.165a.486.486 0 0 0-.108-.238.277.277 0 0 0-.22-.1.336.336 0 0 0-.287.158z" fill="url(#f)"/><path d="M5.104 15.802c3.639-.005 9.248-.042 12.826-.01 0 .006.867 0 .855.015l-.855.01c-3.552.027-9.228.007-12.826-.015z" fill="#EDDCAE"/><defs><linearGradient id="a" x1="2" y1="12" x2="22" y2="12" gradientUnits="userSpaceOnUse"><stop stop-color="#EDE3C7"/><stop offset=".2" stop-color="#B07B39"/><stop offset=".5" stop-color="#EDE3C7"/><stop offset=".74" stop-color="#B07B39"/><stop offset=".96" stop-color="#EDE3C7"/></linearGradient><linearGradient id="b" x1="2" y1="12" x2="22" y2="12" gradientUnits="userSpaceOnUse"><stop stop-color="#EDE3C7"/><stop offset=".98" stop-color="#B07B39"/></linearGradient><linearGradient id="c" x1="2" y1="12" x2="22" y2="12" gradientUnits="userSpaceOnUse"><stop stop-color="#B07B39"/><stop offset=".26" stop-color="#EDE3C7"/><stop offset=".57" stop-color="#B07B39"/><stop offset=".8" stop-color="#EDE3C7"/><stop offset="1" stop-color="#B07B39"/></linearGradient><linearGradient id="d" x1="2" y1="12" x2="26.181" y2="12" gradientUnits="userSpaceOnUse"><stop stop-color="#EDE3C7"/><stop offset="1" stop-color="#B07B39"/></linearGradient><linearGradient id="e" x1="2" y1="12" x2="22" y2="12" gradientUnits="userSpaceOnUse"><stop stop-color="#EDE3C7"/><stop offset=".98" stop-color="#B07B39"/></linearGradient><linearGradient id="f" x1="2.001" y1="11.985" x2="21.999" y2="11.985" gradientUnits="userSpaceOnUse"><stop stop-color="#B07B39"/><stop offset=".26" stop-color="#EDE3C7"/><stop offset=".57" stop-color="#B07B39"/><stop offset=".8" stop-color="#EDE3C7"/><stop offset="1" stop-color="#B07B39"/></linearGradient></defs></svg>
